libs/ui/packages/crypto-icons/src/svg/CENZ.svg

<svg width="24" height="24" viewBox="0 0 24 24" fill="none">
<path d="M16.2203 13.4085C15.9038 13.6807 15.6203 13.923 15.3398 14.1682C15.3083 14.196 15.2768 14.2455 15.2768 14.2852C15.2723 14.7637 15.2738 15.2415 15.2738 15.7365C15.9945 15.432 16.371 14.5065 16.2203 13.4085ZM15.3518 10.4857C16.155 10.0072 16.2503 9.84149 16.2533 8.89199C16.2533 8.81699 16.2555 8.74274 16.2525 8.66849C16.218 7.79624 15.621 7.02599 14.7945 6.84149C14.052 6.67649 13.3035 6.53924 12.5535 6.41249C12.1718 6.34724 11.781 6.29174 11.3963 6.30449C10.9305 6.31949 10.5503 6.56399 10.2 6.96299C11.049 7.12124 11.8373 7.28399 12.6308 7.41299C13.7205 7.58999 14.5523 8.13674 15.0068 9.17849C15.183 9.58274 15.2393 10.041 15.3518 10.4857ZM8.7345 8.22974C8.0895 8.63024 7.7715 9.17324 7.76175 9.84824C7.73975 11.6707 7.738 13.4933 7.7565 15.3157C7.764 16.1985 8.34675 16.9552 9.18825 17.1607C9.90825 17.3362 10.6448 17.4442 11.3738 17.5852C11.8358 17.6752 12.2933 17.8117 12.7703 17.6932C13.1603 17.5957 13.5083 17.4315 13.7828 17.046C12.9083 16.8817 12.087 16.701 11.2575 16.578C9.83775 16.3672 8.73675 15.1095 8.73525 13.6455C8.733 11.9715 8.7345 10.2982 8.7345 8.62424V8.22974ZM9.738 7.96649C9.729 8.15174 9.7155 8.28974 9.7155 8.42774C9.71325 10.1122 9.71325 11.7967 9.7155 13.4812C9.71775 14.5882 10.3868 15.3832 11.4495 15.5692C12.2175 15.7042 12.9825 15.8542 13.749 15.9967C13.8023 16.0065 13.8563 16.0117 13.9103 16.0177C14.274 16.0582 14.2868 16.0515 14.289 15.687C14.2928 15.1282 14.274 14.5695 14.3003 14.0122C14.3078 13.8472 14.391 13.6395 14.5103 13.5337C15.1185 12.9915 15.75 12.4762 16.3733 11.9512C16.5428 11.8087 16.7168 11.7112 16.9448 11.8215C17.1855 11.9377 17.2485 12.1387 17.2448 12.3915C17.2358 13.0245 17.2493 13.6582 17.2298 14.2897C17.193 15.4312 16.365 16.5547 15.3023 16.9147C15.2122 16.9424 15.1286 16.9878 15.0565 17.0484C14.9844 17.1089 14.9251 17.1834 14.8823 17.2672C14.2275 18.4297 13.1055 18.8782 11.9033 18.7192C10.9178 18.588 9.93975 18.3802 8.96625 18.1717C7.71225 17.9032 6.786 16.7362 6.76575 15.3397C6.73875 13.4602 6.74775 11.58 6.78 9.70124C6.7995 8.52674 7.6725 7.43624 8.7795 7.07624C8.90269 7.03066 9.00683 6.94476 9.075 6.83249C9.8175 5.54399 11.0235 5.02124 12.4568 5.34224C13.2518 5.51999 14.061 5.63699 14.8605 5.79974C16.2795 6.08924 17.2275 7.26074 17.2463 8.73524C17.2515 9.15449 17.2545 9.57374 17.2313 9.99149C17.2245 10.1242 17.166 10.2937 17.0715 10.377C16.3913 10.977 15.7028 11.568 14.997 12.1365C14.8883 12.2242 14.6445 12.2445 14.523 12.1792C14.4038 12.1147 14.3033 11.9055 14.295 11.754C14.2658 11.2537 14.3213 10.746 14.2725 10.2487C14.175 9.25199 13.4963 8.59349 12.4733 8.42324C11.6603 8.28824 10.8488 8.14199 10.0365 8.00249C9.9495 7.98749 9.861 7.98074 9.738 7.96649Z" fill="white"/>
<path d="M16.2204 13.4083C15.9039 13.6806 15.6204 13.9228 15.3399 14.1681C15.3084 14.1958 15.2769 14.2453 15.2769 14.2851C15.2724 14.7636 15.2739 15.2413 15.2739 15.7363C15.9946 15.4318 16.3711 14.5063 16.2204 13.4083ZM15.3519 10.4856C16.1551 10.0071 16.2504 9.84133 16.2534 8.89183C16.2534 8.81683 16.2556 8.74257 16.2526 8.66832C16.2181 7.79607 15.6211 7.02583 14.7946 6.84133C14.0521 6.67632 13.3036 6.53908 12.5536 6.41233C12.1719 6.34708 11.7811 6.29158 11.3964 6.30433C10.9306 6.31933 10.5504 6.56383 10.2001 6.96283C11.0491 7.12108 11.8374 7.28383 12.6309 7.41283C13.7206 7.58983 14.5524 8.13657 15.0069 9.17833C15.1831 9.58258 15.2394 10.0408 15.3519 10.4856ZM8.73463 8.22957C8.08963 8.63007 7.77163 9.17307 7.76188 9.84807C7.73988 11.6705 7.73813 13.4931 7.75663 15.3156C7.76413 16.1983 8.34688 16.9551 9.18838 17.1606C9.90838 17.3361 10.6449 17.4441 11.3739 17.5851C11.8359 17.6751 12.2934 17.8116 12.7704 17.6931C13.1604 17.5956 13.5084 17.4313 13.7829 17.0458C12.9084 16.8816 12.0871 16.7008 11.2576 16.5778C9.83788 16.3671 8.73688 15.1093 8.73538 13.6453C8.73313 11.9713 8.73463 10.2981 8.73463 8.62407V8.22957ZM9.73813 7.96633C9.72913 8.15158 9.71563 8.28958 9.71563 8.42758C9.71338 10.1121 9.71338 11.7966 9.71563 13.4811C9.71788 14.5881 10.3869 15.3831 11.4496 15.5691C12.2176 15.7041 12.9826 15.8541 13.7491 15.9966C13.8024 16.0063 13.8564 16.0116 13.9104 16.0176C14.2741 16.0581 14.2869 16.0513 14.2891 15.6868C14.2929 15.1281 14.2741 14.5693 14.3004 14.0121C14.3079 13.8471 14.3911 13.6393 14.5104 13.5336C15.1186 12.9913 15.7501 12.4761 16.3734 11.9511C16.5429 11.8086 16.7169 11.7111 16.9449 11.8213C17.1856 11.9376 17.2486 12.1386 17.2449 12.3913C17.2359 13.0243 17.2494 13.6581 17.2299 14.2896C17.1931 15.4311 16.3651 16.5546 15.3024 16.9146C15.2123 16.9422 15.1288 16.9877 15.0566 17.0482C14.9845 17.1088 14.9252 17.1832 14.8824 17.2671C14.2276 18.4296 13.1056 18.8781 11.9034 18.7191C10.9179 18.5878 9.93988 18.3801 8.96638 18.1716C7.71238 17.9031 6.78613 16.7361 6.76588 15.3396C6.73888 13.4601 6.74788 11.5798 6.78013 9.70108C6.79963 8.52658 7.67263 7.43608 8.77963 7.07608C8.90281 7.0305 9.00695 6.94459 9.07513 6.83232C9.81763 5.54382 11.0236 5.02108 12.4569 5.34208C13.2519 5.51983 14.0611 5.63682 14.8606 5.79957C16.2796 6.08907 17.2276 7.26058 17.2464 8.73508C17.2516 9.15433 17.2546 9.57358 17.2314 9.99132C17.2246 10.1241 17.1661 10.2936 17.0716 10.3768C16.3914 10.9768 15.7029 11.5678 14.9971 12.1363C14.8884 12.2241 14.6446 12.2443 14.5231 12.1791C14.4039 12.1146 14.3034 11.9053 14.2951 11.7538C14.2659 11.2536 14.3214 10.7458 14.2726 10.2486C14.1751 9.25183 13.4964 8.59333 12.4734 8.42308C11.6604 8.28807 10.8489 8.14183 10.0366 8.00233C9.94963 7.98733 9.86113 7.98058 9.73813 7.96633Z" fill="#3089F2"/>
</svg>

<svg width="24" height="24" viewBox="0 0 24 24" fill="none"><path fill="#fff" d="M16.22 13.409c-.316.272-.6.514-.88.76-.032.027-.063.076-.063.116-.005.479-.003.957-.003 1.451.72-.304 1.097-1.23.946-2.328m-.868-2.923c.803-.479.898-.645.901-1.594 0-.075.003-.15 0-.224-.035-.872-.632-1.642-1.459-1.827a45 45 0 0 0-2.24-.429c-.382-.065-.773-.12-1.158-.108-.466.015-.846.26-1.196.659.849.158 1.637.321 2.43.45 1.09.177 1.922.724 2.377 1.765.176.405.232.863.345 1.308M8.735 8.23c-.646.4-.963.943-.973 1.618a246 246 0 0 0-.005 5.468c.007.882.59 1.64 1.431 1.845.72.175 1.457.283 2.186.424.462.09.92.227 1.396.108.39-.097.738-.262 1.013-.647-.875-.164-1.696-.345-2.525-.468-1.42-.21-2.521-1.468-2.523-2.932q-.002-2.511 0-5.022zm1.003-.264c-.009.186-.022.324-.022.462q-.004 2.526 0 5.053c.002 1.107.67 1.902 1.734 2.088.768.135 1.533.285 2.299.428q.08.014.161.02c.364.041.377.035.379-.33.004-.559-.015-1.117.011-1.675a.75.75 0 0 1 .21-.478c.608-.543 1.24-1.058 1.863-1.583.17-.142.344-.24.572-.13.24.117.303.318.3.57-.01.633.004 1.267-.015 1.899-.037 1.141-.865 2.265-1.928 2.625a.7.7 0 0 0-.42.352c-.655 1.163-1.777 1.611-2.979 1.452-.985-.131-1.963-.339-2.937-.547-1.254-.269-2.18-1.436-2.2-2.832-.027-1.88-.018-3.76.014-5.639.02-1.174.893-2.265 2-2.625a.58.58 0 0 0 .295-.244c.743-1.288 1.949-1.81 3.382-1.49.795.178 1.604.295 2.403.458 1.42.29 2.367 1.46 2.386 2.935.006.42.009.839-.015 1.256-.007.133-.065.303-.16.386-.68.6-1.368 1.191-2.074 1.76a.52.52 0 0 1-.474.042c-.12-.064-.22-.274-.228-.425-.03-.5.026-1.008-.022-1.505-.098-.997-.777-1.656-1.8-1.826-.813-.135-1.624-.281-2.437-.42-.086-.016-.175-.022-.298-.037"/><path fill="#3089f2" d="M16.22 13.408c-.316.273-.6.515-.88.76-.032.028-.063.077-.063.117-.005.479-.003.956-.003 1.451.72-.304 1.097-1.23.946-2.328m-.868-2.922c.803-.479.898-.645.901-1.594 0-.075.003-.15 0-.224-.035-.872-.632-1.642-1.458-1.827a45 45 0 0 0-2.241-.429c-.382-.065-.773-.12-1.158-.108-.465.015-.846.26-1.196.659.85.158 1.637.32 2.43.45 1.09.177 1.922.724 2.377 1.765.176.405.232.863.345 1.308M8.735 8.23c-.645.4-.963.943-.973 1.618a246 246 0 0 0-.005 5.468c.007.882.59 1.64 1.431 1.845.72.175 1.457.283 2.186.424.462.09.92.227 1.396.108.39-.097.738-.262 1.013-.647-.875-.164-1.696-.345-2.525-.468-1.42-.21-2.521-1.469-2.523-2.933q-.002-2.51 0-5.02zm1.003-.264c-.009.186-.022.324-.022.462a1892 1892 0 0 0 0 5.053c.002 1.107.67 1.902 1.734 2.088.768.135 1.533.285 2.3.428q.079.014.16.02c.364.041.377.034.38-.33.003-.559-.016-1.118.01-1.675a.75.75 0 0 1 .21-.478c.609-.543 1.24-1.058 1.863-1.583.17-.142.344-.24.572-.13.24.117.304.318.3.57-.01.633.004 1.267-.015 1.899-.037 1.141-.865 2.265-1.928 2.625a.7.7 0 0 0-.42.352c-.654 1.163-1.776 1.611-2.979 1.452-.985-.131-1.963-.339-2.937-.547-1.254-.269-2.18-1.436-2.2-2.832-.027-1.88-.018-3.76.014-5.639.02-1.174.893-2.265 2-2.625a.58.58 0 0 0 .295-.244c.743-1.288 1.949-1.81 3.382-1.49.795.178 1.604.295 2.404.458 1.419.29 2.367 1.46 2.385 2.935.006.42.009.839-.015 1.256-.006.133-.065.303-.16.386-.68.6-1.368 1.19-2.074 1.76a.52.52 0 0 1-.474.042c-.12-.064-.22-.274-.228-.425-.03-.5.026-1.008-.022-1.505-.098-.997-.777-1.656-1.8-1.826-.813-.135-1.624-.281-2.436-.42-.087-.016-.176-.022-.299-.037"/></svg>
